icons/1_Primary/UpCloud.svg

<svg xmlns="http://www.w3.org/2000/svg" width="1024" height="1024" fill="none">
   <g clip-path="url(#a)">
      <path fill="#8C72BD" d="M512 1024c282.77 0 512-229.23 512-512S794.77 0 512 0 0 229.23 0 512s229.23 512 512 512Z"/>
      <path fill="#fff" d="M835 589.81a50.811 50.811 0 0 1-50.7 50.73h-362v-132h23.63V616.9h338.58a27.087 27.087 0 0 0 19.152-46.237 27.087 27.087 0 0 0-19.152-7.933H469.79v-23.65H784.3a50.811 50.811 0 0 1 50.7 50.73ZM212.63 512a26.99 26.99 0 0 1 16.698-25.037 26.998 26.998 0 0 1 10.372-2.043H551a50.732 50.732 0 0 0 35.872-86.602A50.735 50.735 0 0 0 551 383.46H422.52v54.17h23.63V407.1H551a27.087 27.087 0 0 1 19.152 46.237A27.087 27.087 0 0 1 551 461.27H239.7a50.84 50.84 0 0 0 0 101.67h159V539.3h-159a27.278 27.278 0 0 1-27.07-27.3Z"/>
   </g>
   <defs>
      <clipPath id="a">
         <path fill="#fff" d="M0 0h1024v1024H0z"/>
      </clipPath>
   </defs>
</svg>

<svg width="1024" height="1024" viewBox="0 0 1024 1024" fill="none" xmlns="http://www.w3.org/2000/svg">
<g clip-path="url(#clip0_2_3801)">
<path d="M512 1024C794.77 1024 1024 794.77 1024 512C1024 229.23 794.77 0 512 0C229.23 0 0 229.23 0 512C0 794.77 229.23 1024 512 1024Z" fill="#8C72BD"/>
<path d="M835 589.81C834.979 603.253 829.631 616.139 820.129 625.648C810.626 635.156 797.743 640.511 784.3 640.54H422.3V508.54H445.93V616.9H784.51C791.693 616.9 798.583 614.046 803.662 608.967C808.741 603.888 811.595 596.998 811.595 589.815C811.595 582.632 808.741 575.742 803.662 570.663C798.583 565.584 791.693 562.73 784.51 562.73H469.79V539.08H784.3C797.743 539.109 810.626 544.464 820.129 553.972C829.631 563.481 834.979 576.367 835 589.81ZM212.63 512C212.619 508.442 213.312 504.916 214.669 501.627C216.025 498.337 218.019 495.348 220.534 492.832C223.05 490.315 226.038 488.32 229.328 486.963C232.617 485.605 236.142 484.911 239.7 484.92H551C564.454 484.92 577.358 479.575 586.872 470.061C596.385 460.548 601.73 447.644 601.73 434.19C601.73 420.736 596.385 407.832 586.872 398.318C577.358 388.805 564.454 383.46 551 383.46H422.52V437.63H446.15V407.1H551C558.183 407.1 565.073 409.954 570.152 415.033C575.231 420.112 578.085 427.002 578.085 434.185C578.085 441.368 575.231 448.258 570.152 453.337C565.073 458.416 558.183 461.27 551 461.27H239.7C226.341 461.457 213.593 466.896 204.212 476.409C194.832 485.922 189.573 498.745 189.573 512.105C189.573 525.465 194.832 538.288 204.212 547.801C213.593 557.314 226.341 562.753 239.7 562.94H398.7V539.3H239.7C232.498 539.245 225.61 536.343 220.539 531.229C215.467 526.115 212.625 519.202 212.63 512Z" fill="white"/>
</g>
<defs>
<clipPath id="clip0_2_3801">
<rect width="1024" height="1024" fill="white"/>
</clipPath>
</defs>
</svg>
